X:1
T:[ID 2-127]
T:[ID 2-127]
T:Bezeichnung standardisiert: Polonaise Polonoise
T:Urheber unbekannt Datum in der hier transkribierten schriftlichen Quelle: 1767
C:Urheber unbekannt
C:Datum in der hier transkribierten schriftlichen Quelle: 1767
L:1/8
M:3/4
K:D
V:1 treble 
V:1
 d D2 F A/F/E/D/ | B2 A2 d2 | c/d/e/c/ Ac ef | gb/a/ g/f/e/d/ cB/A/ |"^O)" d/A/F/D/ B2 A2 | %5
 dc/B/ A/c/e/g/ f2 |"^O)" d/A/F/D/ B2 A2 | dc/B/ A/c/e/g/ f2 | e/g/b/a/ gfed | c/d/e/c/ d2 D2 :: %10
 f d2 f f/a/g/f/ | e2 d2 c2 | B/d/f/e/ dcBA | ^G/A/B/G/ A4 | Aa a/g/f/e/ ^dB | %15
"^|" e2"^|" f2"^|" g2 | Bg g/f/e/d/ cA |"^|" d2"^|" e2 fA | Bb/a/ gfed | e/f/g/f/ ed cB/A/ | %20
"^O)" d/A/F/D/ B2 A2 | dc/B/ A/c/e/g/ f2 |"^O)" d/A/F/D/ B2 A2 | dc/B/ A/c/e/g/ f2 | %24
 e/g/b/a/ gfed | c/d/e/c/ d2 D2 :| %26

